Numix/16/status/indicator-keyboard-Sr-9.svg

<?xml version="1.0" encoding="UTF-8" standalone="no"?>
<svg
   xmlns:dc="http://purl.org/dc/elements/1.1/"
   xmlns:cc="http://creativecommons.org/ns#"
   xmlns:rdf="http://www.w3.org/1999/02/22-rdf-syntax-ns#"
   xmlns:svg="http://www.w3.org/2000/svg"
   xmlns="http://www.w3.org/2000/svg"
   xmlns:sodipodi="http://sodipodi.sourceforge.net/DTD/sodipodi-0.dtd"
   xmlns:inkscape="http://www.inkscape.org/namespaces/inkscape"
   viewBox="0 0 16 16"
   id="svg2"
   version="1.1"
   inkscape:version="0.91 r13725"
   sodipodi:docname="indicator-keyboard-Sr-9.svg">
  <metadata
     id="metadata14">
    <rdf:RDF>
      <cc:Work
         rdf:about="">
        <dc:format>image/svg+xml</dc:format>
        <dc:type
           rdf:resource="http://purl.org/dc/dcmitype/StillImage" />
      </cc:Work>
    </rdf:RDF>
  </metadata>
  <defs
     id="defs12" />
  <sodipodi:namedview
     pagecolor="#ffffff"
     bordercolor="#666666"
     borderopacity="1"
     objecttolerance="10"
     gridtolerance="10"
     guidetolerance="10"
     inkscape:pageopacity="0"
     inkscape:pageshadow="2"
     inkscape:window-width="459"
     inkscape:window-height="369"
     id="namedview10"
     showgrid="false"
     inkscape:zoom="14.75"
     inkscape:cx="8"
     inkscape:cy="8"
     inkscape:window-x="65"
     inkscape:window-y="24"
     inkscape:window-maximized="0"
     inkscape:current-layer="svg2" />
  <path
     style="fill:#ececec;fill-opacity:1"
     d="M 1.5996094 0 C 0.71320937 2.9605947e-16 0 0.71320937 0 1.5996094 L 0 14.400391 C 2.9605947e-16 15.286791 0.71320937 16 1.5996094 16 L 14.400391 16 C 15.286791 16 16 15.286791 16 14.400391 L 16 1.5996094 C 16 0.71320937 15.286791 0 14.400391 0 L 1.5996094 0 z M 4.890625 4.7246094 C 5.058625 4.7246094 5.2227656 4.7357656 5.3847656 4.7597656 C 5.5467656 4.7837656 5.6959844 4.817375 5.8339844 4.859375 C 5.9779844 4.895375 6.1086563 4.936375 6.2226562 4.984375 C 6.3426562 5.032375 6.4415313 5.0846719 6.5195312 5.1386719 L 6.3027344 5.6503906 C 6.1287344 5.5303906 5.9160625 5.4352813 5.6640625 5.3632812 C 5.4180625 5.2912813 5.1512812 5.2558594 4.8632812 5.2558594 C 4.6652812 5.2558594 4.4824531 5.2763594 4.3144531 5.3183594 C 4.1524531 5.3543594 4.010625 5.4178125 3.890625 5.5078125 C 3.770625 5.5918125 3.6755156 5.6980781 3.6035156 5.8300781 C 3.5375156 5.9620781 3.5039062 6.1225938 3.5039062 6.3085938 C 3.5039062 6.5005938 3.5393281 6.6629219 3.6113281 6.7949219 C 3.6833281 6.9269219 3.7822031 7.0407187 3.9082031 7.1367188 C 4.0402031 7.2327187 4.1931875 7.3184844 4.3671875 7.3964844 C 4.5411875 7.4744844 4.7315469 7.556625 4.9355469 7.640625 C 5.1815469 7.742625 5.4129062 7.8433125 5.6289062 7.9453125 C 5.8509063 8.0473125 6.041125 8.1686406 6.203125 8.3066406 C 6.365125 8.4446406 6.4957969 8.6125469 6.5917969 8.8105469 C 6.6877969 9.0085469 6.734375 9.2510625 6.734375 9.5390625 C 6.734375 10.103063 6.536625 10.526594 6.140625 10.808594 C 5.750625 11.090594 5.2208281 11.230469 4.5488281 11.230469 C 4.3088281 11.230469 4.088625 11.215547 3.890625 11.185547 C 3.692625 11.155547 3.515375 11.120125 3.359375 11.078125 C 3.203375 11.030125 3.0728438 10.981594 2.9648438 10.933594 C 2.8568438 10.885594 2.7728906 10.844594 2.7128906 10.808594 L 2.9101562 10.277344 C 2.9701563 10.313344 3.0503437 10.354344 3.1523438 10.402344 C 3.2543437 10.450344 3.3756719 10.498875 3.5136719 10.546875 C 3.6516719 10.588875 3.8064688 10.624297 3.9804688 10.654297 C 4.1544687 10.684297 4.3466406 10.699219 4.5566406 10.699219 C 5.0426406 10.699219 5.4214062 10.613453 5.6914062 10.439453 C 5.9614063 10.259453 6.0957031 9.970219 6.0957031 9.5742188 C 6.0957031 9.3462187 6.0509375 9.1578125 5.9609375 9.0078125 C 5.8769375 8.8518125 5.7631406 8.7230938 5.6191406 8.6210938 C 5.4751406 8.5130937 5.3090469 8.4235625 5.1230469 8.3515625 C 4.9370469 8.2735625 4.7430625 8.1914219 4.5390625 8.1074219 C 4.2810625 8.0054219 4.0497031 7.9009687 3.8457031 7.7929688 C 3.6417031 7.6849688 3.4682187 7.5655937 3.3242188 7.4335938 C 3.1802187 7.2955937 3.0682344 7.1388438 2.9902344 6.9648438 C 2.9182344 6.7908437 2.8828125 6.5875156 2.8828125 6.3535156 C 2.8828125 5.8195156 3.0600625 5.4146719 3.4140625 5.1386719 C 3.7680625 4.8626719 4.260625 4.7246094 4.890625 4.7246094 z M 9.421875 6.3535156 C 9.613875 6.3535156 9.7948906 6.3684375 9.9628906 6.3984375 C 10.136891 6.4284375 10.256266 6.4582812 10.322266 6.4882812 L 10.205078 6.9921875 C 10.157078 6.9681875 10.058203 6.9439219 9.9082031 6.9199219 C 9.7642031 6.8899219 9.5720313 6.875 9.3320312 6.875 C 9.0800312 6.875 8.8767031 6.8936875 8.7207031 6.9296875 C 8.5707031 6.9656875 8.4718281 6.9955312 8.4238281 7.0195312 L 8.4238281 11.095703 L 7.8378906 11.095703 L 7.8378906 6.6582031 C 7.9878906 6.5922031 8.1949844 6.5269375 8.4589844 6.4609375 C 8.7229844 6.3889375 9.043875 6.3535156 9.421875 6.3535156 z M 11.990234 8.7539062 C 12.415334 8.7539062 12.736679 8.9047781 12.955078 9.2050781 C 13.177378 9.5014781 13.287109 9.9168718 13.287109 10.451172 C 13.287109 11.266272 13.093124 11.879569 12.703125 12.292969 C 12.313125 12.702469 11.742941 12.908203 10.994141 12.908203 L 10.982422 12.591797 C 11.239822 12.591797 11.476906 12.562406 11.691406 12.503906 C 11.905906 12.445406 12.090094 12.355275 12.246094 12.234375 C 12.405994 12.109575 12.535312 11.952819 12.632812 11.761719 C 12.734213 11.566719 12.802791 11.331594 12.837891 11.058594 C 12.732591 11.113194 12.605231 11.162178 12.457031 11.205078 C 12.308831 11.244078 12.152075 11.263672 11.984375 11.263672 C 11.765975 11.263672 11.579834 11.230363 11.427734 11.164062 C 11.275634 11.093863 11.152194 11.001772 11.058594 10.888672 C 10.964994 10.775572 10.896416 10.646247 10.853516 10.498047 C 10.810616 10.349847 10.791016 10.195056 10.791016 10.035156 C 10.791016 9.8869562 10.812575 9.7360844 10.859375 9.5839844 C 10.906175 9.4318844 10.978672 9.2966812 11.076172 9.1757812 C 11.177572 9.0509812 11.302972 8.9490938 11.451172 8.8710938 C 11.603272 8.7930937 11.783534 8.7539062 11.990234 8.7539062 z M 11.996094 9.0878906 C 11.851794 9.0878906 11.728353 9.1153219 11.626953 9.1699219 C 11.525553 9.2206219 11.443259 9.2892 11.380859 9.375 C 11.318459 9.4608 11.271434 9.5587751 11.240234 9.671875 C 11.212934 9.784975 11.199219 9.9025374 11.199219 10.023438 C 11.199219 10.331538 11.267797 10.560784 11.404297 10.708984 C 11.544697 10.857184 11.750431 10.929687 12.019531 10.929688 C 12.198931 10.929688 12.353728 10.910094 12.486328 10.871094 C 12.622828 10.828194 12.750188 10.781163 12.867188 10.726562 C 12.871121 10.679763 12.873047 10.634697 12.873047 10.591797 C 12.87698 10.548897 12.878906 10.499912 12.878906 10.445312 C 12.878906 10.262013 12.865191 10.087628 12.837891 9.9238281 C 12.814491 9.7600281 12.767466 9.6169874 12.697266 9.4921875 C 12.630966 9.3673875 12.540834 9.2694187 12.427734 9.1992188 C 12.314634 9.1251188 12.171594 9.0878906 11.996094 9.0878906 z "
     id="path4" />
</svg>

<svg xmlns="http://www.w3.org/2000/svg" viewBox="0 0 16 16">
 <path d="m 1.6 0 c -0.886 0 -1.6 0.713 -1.6 1.6 l 0 12.801 c 0 0.886 0.713 1.6 1.6 1.6 l 12.801 0 c 0.886 0 1.6 -0.713 1.6 -1.6 l 0 -12.801 c 0 -0.886 -0.713 -1.6 -1.6 -1.6 l -12.801 0 z m 3.291 4.725 c 0.168 0 0.332 0.011 0.494 0.035 c 0.162 0.024 0.311 0.058 0.449 0.1 c 0.144 0.036 0.275 0.077 0.389 0.125 c 0.12 0.048 0.219 0.1 0.297 0.154 l -0.217 0.512 c -0.174 -0.12 -0.387 -0.215 -0.639 -0.287 c -0.246 -0.072 -0.513 -0.107 -0.801 -0.107 c -0.198 0 -0.381 0.02 -0.549 0.063 c -0.162 0.036 -0.304 0.099 -0.424 0.189 c -0.12 0.084 -0.215 0.19 -0.287 0.322 c -0.066 0.132 -0.1 0.293 -0.1 0.479 c 0 0.192 0.035 0.354 0.107 0.486 c 0.072 0.132 0.171 0.246 0.297 0.342 c 0.132 0.096 0.285 0.182 0.459 0.26 c 0.174 0.078 0.364 0.16 0.568 0.244 c 0.246 0.102 0.477 0.203 0.693 0.305 c 0.222 0.102 0.412 0.223 0.574 0.361 c 0.162 0.138 0.293 0.306 0.389 0.504 c 0.096 0.198 0.143 0.441 0.143 0.729 c 0 0.564 -0.198 0.988 -0.594 1.27 c -0.39 0.282 -0.92 0.422 -1.592 0.422 c -0.24 0 -0.46 -0.015 -0.658 -0.045 c -0.198 -0.03 -0.375 -0.065 -0.531 -0.107 c -0.156 -0.048 -0.287 -0.097 -0.395 -0.145 c -0.108 -0.048 -0.192 -0.089 -0.252 -0.125 l 0.197 -0.531 c 0.06 0.036 0.14 0.077 0.242 0.125 c 0.102 0.048 0.223 0.097 0.361 0.145 c 0.138 0.042 0.293 0.077 0.467 0.107 c 0.174 0.03 0.366 0.045 0.576 0.045 c 0.486 0 0.865 -0.086 1.135 -0.26 c 0.27 -0.18 0.404 -0.469 0.404 -0.865 c 0 -0.228 -0.045 -0.416 -0.135 -0.566 c -0.084 -0.156 -0.198 -0.285 -0.342 -0.387 c -0.144 -0.108 -0.31 -0.198 -0.496 -0.27 c -0.186 -0.078 -0.38 -0.16 -0.584 -0.244 c -0.258 -0.102 -0.489 -0.206 -0.693 -0.314 c -0.204 -0.108 -0.377 -0.227 -0.521 -0.359 c -0.144 -0.138 -0.256 -0.295 -0.334 -0.469 c -0.072 -0.174 -0.107 -0.377 -0.107 -0.611 c 0 -0.534 0.177 -0.939 0.531 -1.215 c 0.354 -0.276 0.847 -0.414 1.477 -0.414 z m 4.531 1.629 c 0.192 0 0.373 0.015 0.541 0.045 c 0.174 0.03 0.293 0.06 0.359 0.09 l -0.117 0.504 c -0.048 -0.024 -0.147 -0.048 -0.297 -0.072 c -0.144 -0.03 -0.336 -0.045 -0.576 -0.045 c -0.252 0 -0.455 0.019 -0.611 0.055 c -0.15 0.036 -0.249 0.066 -0.297 0.09 l 0 4.076 l -0.586 0 l 0 -4.437 c 0.15 -0.066 0.357 -0.131 0.621 -0.197 c 0.264 -0.072 0.585 -0.107 0.963 -0.107 z m 2.568 2.4 c 0.425 0 0.746 0.151 0.965 0.451 c 0.222 0.296 0.332 0.712 0.332 1.246 c 0 0.815 -0.194 1.428 -0.584 1.842 c -0.39 0.41 -0.96 0.615 -1.709 0.615 l -0.012 -0.316 c 0.257 0 0.494 -0.029 0.709 -0.088 c 0.214 -0.059 0.399 -0.149 0.555 -0.27 c 0.16 -0.125 0.289 -0.282 0.387 -0.473 c 0.101 -0.195 0.17 -0.43 0.205 -0.703 c -0.105 0.055 -0.233 0.104 -0.381 0.146 c -0.148 0.039 -0.305 0.059 -0.473 0.059 c -0.218 0 -0.405 -0.033 -0.557 -0.1 c -0.152 -0.07 -0.276 -0.162 -0.369 -0.275 c -0.094 -0.113 -0.162 -0.242 -0.205 -0.391 c -0.043 -0.148 -0.063 -0.303 -0.063 -0.463 c 0 -0.148 0.022 -0.299 0.068 -0.451 c 0.047 -0.152 0.119 -0.287 0.217 -0.408 c 0.101 -0.125 0.227 -0.227 0.375 -0.305 c 0.152 -0.078 0.332 -0.117 0.539 -0.117 z m 0.006 0.334 c -0.144 0 -0.268 0.027 -0.369 0.082 c -0.101 0.051 -0.184 0.119 -0.246 0.205 c -0.062 0.086 -0.109 0.184 -0.141 0.297 c -0.027 0.113 -0.041 0.231 -0.041 0.352 c 0 0.308 0.069 0.537 0.205 0.686 c 0.14 0.148 0.346 0.221 0.615 0.221 c 0.179 0 0.334 -0.02 0.467 -0.059 c 0.136 -0.043 0.264 -0.09 0.381 -0.145 c 0.004 -0.047 0.006 -0.092 0.006 -0.135 c 0.004 -0.043 0.006 -0.092 0.006 -0.146 c 0 -0.183 -0.014 -0.358 -0.041 -0.521 c -0.023 -0.164 -0.07 -0.307 -0.141 -0.432 c -0.066 -0.125 -0.156 -0.223 -0.27 -0.293 c -0.113 -0.074 -0.256 -0.111 -0.432 -0.111 z" style="fill:#ececec;fill-opacity:1"/>
</svg>
